X: 169
T: Albermarls March
%%VWML:Wrights-3753-p85-0
F: http://www.vwml.org/record/Wrights/3753/p85
%R: march, reel
B: Daniel Wright "Wright's Compleat Collection of Celebrated Country Dances" 1740 p.85
S: http://library.efdss.org/cgi-bin/dancebooks.cgi
Z: 2014 John Chambers <jc:trillian.mit.edu>
M: 2/4
L: 1/16
K: F
%-------------------------
|:\
FGAB c2f2 | efge f2F2 |\
c2BA d2c2 | B4 A4 |\
f2ga g2fe | d2ef =B2cd |\
GA=Bc dfed | Td4 c4 |\
g2fe dfed | Td4 c4 :|
cdef g2c2 | B2AG A2GF |\
defg a2^c2 | dfed ^c2A2 |\
A=Bc2 cde2 | efge f2b2 |\
b2a2 dgfe | Te4 d4 |
fgaf g2de | fagf e2dc |\
B2AG A2fe | dcBA G4 |\
FGAB c2f2 | b2ag a2gf |\
B2AG Afgd | Te3f f4 |]
%-------------------------
%%center The 1st strain twice the last but once.
%%begintext align
%% All four lead up, then back again, the 2d Cu. go round the 1st Cu.
%% into their own places the 1st Cu. turn hands at the same time .|
%% then the 1st Cu. cast off, and go the half figure thro' the 2d Cu.
%% into the 2d Cu. places, the 2d Man and 2d Wo. change places
%% at the same time :| (the 1st Cu. being in the 2d Cu. places
%% improper) the 1st Man change with the 2d Wo. then the 2d
%% Man change with the 1st Wo. then lead to the wall and back
%% again, then the 1st Cu. cast off back to back and turn .|
%%endtext
%-------------------------
%%sep 2 4 300
T: Yellow Joak
T: Longways &c.
%R: triple hornpipe
B: Daniel Wright "Wright's Compleat Collection of Celebrated Country Dances" 1740 p.85
S: http://library.efdss.org/cgi-bin/dancebooks.cgi
Z: 2014 John Chambers <jc:trillian.mit.edu>
N: repeats added to match the dance phrasing.
M: 3/2
L: 1/8
K: Dmix %-------------------------
D2 F2G2 |\
A4 d4 dcB2 | c2 e4 E2 F2G2 |\
A4 f4 F3G | A2d4 :|\
|: f2 g2f2 |\
e4 d4 dcB2 | c2e4 A2 d2e2 |\
f4 a4 F3G | A2 d4 :| %------------------------- %%begintext align
%% All four hands half round, and foot it .| %% then hands the other half round, and %% turn S. :| cast off and turn hands .| then %% lead thro' the 2d Cu. and cast off, then %% turn S. the Man to the right and the %% Woman to the left :|
%%endtext %------------------------- %%sep 2 4 300
